X: 1
T:Jacky Latin  "CYMRU"
M:C
L:1/8
Q:80
C:
S:Reel
K:HP
|: e|
{g}A3/2B/2{GdG}c/2a3/2e3/2c/2{G}c/2a3/2|
e3/2c/2{G}c/2a3/2e/2A3/2{gcd}c2|
{g}A3/2B/2{GdG}c/2a3/2e3/2c/2{G}c3/2e/2|  !
{g}f3/2B/2{G}B3/2c/2{Gdc}d2{gcd}c/2B3/2:| |:
A3/2{d}c/2{gef}e3/2A/2{g}f3/2A/2{gef}e3/2c/2|
A3/2{d}c/2{gef}e3/2c/2a3/2e/2{gcd}c2|  !
{g}A3/2{d}c/2{gef}e3/2A/2{g}f3/2A/2{gef}e3/2c/2|
{g}f3/2B/2{G}B3/2c/2{Gdc}d2{gcd}c/2B3/2:| |:
a3/2e/2{g}c/2e3/2{g}A3/2{d}c/2{gef}e3/2c/2|  !
a3/2e/2{g}c/2a3/2e/2A3/2{gcd}c2|
a3/2e/2{g}c/2e3/2{g}A3/2{d}c/2{gef}e3/2c/2|
{g}f3/2B/2{G}B3/2c/2{Gdc}d2{gcd}c/2B3/2:| |:  !
{g}c/2{d}A3/2{g}A/2{d}A3/2{g}A/2{d}A3/2{gef}e3/2A/2|
{g}c/2{d}A/2{g}A3/2{d}c/2a/2e3/2{gcd}c2|
{g}c/2{d}A3/2{g}A/2{d}A3/2{g}A/2{d}A3/2{gef}e3/2c/2|  !
{g}f3/2B/2{G}B3/2c/2{Gdc}d2{gcd}c/2B3/2:| |:
{g}A3/2{d}A/2{e}A3/2a/2e3/2c/2a3/2c/2|
e/2a3/2c/2a3/2e/2A3/2{gcd}c2|  !
{g}A3/2{d}A/2{e}A3/2a/2e/2a3/2c/2a3/2|
{g}f3/2B/2{G}B3/2c/2{Gdc}d2{gcd}c/2B3/2:| |:
{g}A3/2{d}A/2{e}A3/2g/2{a}f3/2d/2{gef}e3/2c/2|  !
{g}A3/2{d}A/2{e}Aae/2A3/2{gcd}c2|
{g}A3/2{d}A/2{e}A3/2g/2{a}f3/2d/2{gef}e3/2c/2|
{g}f3/2B/2{G}B3/2c/2{Gdc}d2{gcd}c/2B3/2:|  !
